Adwaita++/actions/22/code-context.svg

<svg height="22" viewBox="0 0 22 22" width="22" xmlns="http://www.w3.org/2000/svg">
  <path d="m3 1.0097656c-1.108 0-2 .892-2 2v10.0000004c0 1.108.892 2 2 2h10c1.108 0 2-.892 2-2v-10.0000004c0-1.1082-.892-2-2-2zm3.6816406 1.9902344h.3183594v.7558594h-.3535156c-.472 0-.7783219.079175-.9199219.234375-.145.1517-.21875.4776156-.21875.9785156v1.3125c0 .5538-.0747625.9546781-.2265625 1.2050781-.1517.2505-.4148625.4197125-.7890625.5078125.3742.0953.6373625.2690313.7890625.5195313.1518.2504.2265625.6509718.2265625 1.2011719v1.3125002c0 .505.07375.830422.21875.982422.1416.151.4479219.228515.9199219.228515h.3535156v.761719h-.3183594c-.8394 0-1.3998875-.129625-1.6796875-.390625-.2832-.261-.4238281-.7835-.4238281-1.5625v-1.2636719c0-.5326-.0914375-.9008687-.2734375-1.1054687-.1821-.2046-.5115344-.3066406-.9902344-.3066406h-.3144531v-.7578126h.3144531c.4787 0 .8081344-.0996812.9902344-.3007812.182-.2046.2734375-.5701031.2734375-1.0957031v-1.2695313c0-.7796.1406281-1.2991406.4238281-1.5566406.2798-.261.8402875-.390625 1.6796875-.390625zm2.3183594 0h.3183594c.8395996 0 1.3996876.129625 1.6796876.390625.283.2575.423828.7770406.423828 1.5566406v1.2695313c0 .5256.091438.8911031.273437 1.0957031.182001.2011.511235.3007812.990235.3007812h.314453v.7578126h-.314453c-.479 0-.808234.1020406-.990235.3066406-.182.2046-.273437.5728687-.273437 1.1054687v1.2636719c0 .779-.140828 1.3015-.423828 1.5625-.28.261-.840088.390625-1.6796876.390625h-.3183594v-.761719h.3535156c.472 0 .7789214-.077515.9199224-.228515.144999-.152.218749-.477422.21875-.982422v-1.3125002c0-.5502001.074562-.9507719.226562-1.2011719.151-.2505.415062-.4242313.789062-.5195313-.374-.0881-.638062-.2573125-.789062-.5078125-.152-.2504-.226562-.6512781-.226562-1.2050781v-1.3125c0-.5009-.07375-.8268156-.21875-.9785156-.141001-.1552-.4479224-.234375-.9199224-.234375h-.3535156z" fill="#444" transform="translate(3 3)"/>
</svg>

<svg xmlns="http://www.w3.org/2000/svg" width="22" height="22" viewBox="0 0 22 22">
 <defs>
  <style id="current-color-scheme" type="text/css">
   .ColorScheme-Text { color:#444444; } .ColorScheme-Highlight { color:#4285f4; }
  </style>
 </defs>
 <path style="fill:currentColor" class="ColorScheme-Text" d="M 3 1.0097656 C 1.892 1.0097656 1 1.9017656 1 3.0097656 L 1 13.009766 C 1 14.117766 1.892 15.009766 3 15.009766 L 13 15.009766 C 14.108 15.009766 15 14.117766 15 13.009766 L 15 3.0097656 C 15 1.9015656 14.108 1.0097656 13 1.0097656 L 3 1.0097656 z M 6.6816406 3 L 7 3 L 7 3.7558594 L 6.6464844 3.7558594 C 6.1744844 3.7558594 5.8681625 3.8350344 5.7265625 3.9902344 C 5.5815625 4.1419344 5.5078125 4.46785 5.5078125 4.96875 L 5.5078125 6.28125 C 5.5078125 6.83505 5.43305 7.2359281 5.28125 7.4863281 C 5.12955 7.7368281 4.8663875 7.9060406 4.4921875 7.9941406 C 4.8663875 8.0894406 5.12955 8.2631719 5.28125 8.5136719 C 5.43305 8.7640719 5.5078125 9.1646437 5.5078125 9.7148438 L 5.5078125 11.027344 C 5.5078125 11.532344 5.5815625 11.857766 5.7265625 12.009766 C 5.8681625 12.160766 6.1744844 12.238281 6.6464844 12.238281 L 7 12.238281 L 7 13 L 6.6816406 13 C 5.8422406 13 5.2817531 12.870375 5.0019531 12.609375 C 4.7187531 12.348375 4.578125 11.825875 4.578125 11.046875 L 4.578125 9.7832031 C 4.578125 9.2506031 4.4866875 8.8823344 4.3046875 8.6777344 C 4.1225875 8.4731344 3.7931531 8.3710938 3.3144531 8.3710938 L 3 8.3710938 L 3 7.6132812 L 3.3144531 7.6132812 C 3.7931531 7.6132812 4.1225875 7.5136 4.3046875 7.3125 C 4.4866875 7.1079 4.578125 6.7423969 4.578125 6.2167969 L 4.578125 4.9472656 C 4.578125 4.1676656 4.7187531 3.648125 5.0019531 3.390625 C 5.2817531 3.129625 5.8422406 3 6.6816406 3 z M 9 3 L 9.3183594 3 C 10.157959 3 10.718047 3.129625 10.998047 3.390625 C 11.281047 3.648125 11.421875 4.1676656 11.421875 4.9472656 L 11.421875 6.2167969 C 11.421875 6.7423969 11.513313 7.1079 11.695312 7.3125 C 11.877313 7.5136 12.206547 7.6132812 12.685547 7.6132812 L 13 7.6132812 L 13 8.3710938 L 12.685547 8.3710938 C 12.206547 8.3710938 11.877313 8.4731344 11.695312 8.6777344 C 11.513312 8.8823344 11.421875 9.2506031 11.421875 9.7832031 L 11.421875 11.046875 C 11.421875 11.825875 11.281047 12.348375 10.998047 12.609375 C 10.718047 12.870375 10.157959 13 9.3183594 13 L 9 13 L 9 12.238281 L 9.3535156 12.238281 C 9.8255156 12.238281 10.132437 12.160766 10.273438 12.009766 C 10.418437 11.857766 10.492187 11.532344 10.492188 11.027344 L 10.492188 9.7148438 C 10.492188 9.1646437 10.56675 8.7640719 10.71875 8.5136719 C 10.86975 8.2631719 11.133812 8.0894406 11.507812 7.9941406 C 11.133812 7.9060406 10.86975 7.7368281 10.71875 7.4863281 C 10.56675 7.2359281 10.492188 6.83505 10.492188 6.28125 L 10.492188 4.96875 C 10.492188 4.46785 10.418438 4.1419344 10.273438 3.9902344 C 10.132437 3.8350344 9.8255156 3.7558594 9.3535156 3.7558594 L 9 3.7558594 L 9 3 z" transform="translate(3 3)"/>
</svg>
